X:1
T:James Gibb editions
T:Lasso, ch'i ardo - Willaert
T:#
%%score [ 1 2 3 4 ]
L:1/8
Q:1/4=120
M:4/4
K:C
V:1 treble-8 nm="Tenor I" snm="T I"
V:2 treble-8 nm="Tenor II" snm="T II"
V:3 bass nm="Bass I" snm="B I"
V:4 bass nm="Bass II" snm="B II"
V:1
"^Lasso, ch'i ardo""^Adriaan Willaert\n(1490-1562)""^Francesco Petrarca\n(1304-74)" A8 | c6 c2 | %2
w: Las-|so, ch'i|
 (B3 c d4) | G4 z2 c2 | c2 B2 c2 G2 | (A3 B c4) |[M:4/4][K:treble-8] B4 z2 A2 | B6 B2 | c4 z2 c2- | %9
w: ar\- * *|do, et|al- tri non me'l|cre\- * *|de; si|cre- d'o-|gn'uom, se|
 c2 d2 e4 | e2 e2 c4 | B2 B2 B2 c2 | c4 A4 | z2 c2 c2 c2 | (d3 c _B2) A2 | z2 G2 E2 (c2- | %16
w: * non so-|la co- le-|i che so- vr'o-|gni~~al- tra,|che so- vr'o-|gni~~al\- * * tra,|et chi so\-|
 cd e2) e2 e2 | d8 | c4 z2 c2 | c2 (A3 B c2) | B2 B2 (e3 d) | c2 B2 z2 c2 | c2 A2 A2 c2 | B4 E4 | %24
w: * * * la, vor-|re-|i, et|chi so\- * *|la, vor- re\- *|* i, et|chi so- la, vor-|re- i:|
 z4 B4 | c2 c2 c2 c2 | d4 e4 | z2 c2 B2 B2 | (cBAG FE e2- | ed d4 ^c2) | d4 z2 d2- | d2 =c4 B2 | %32
w: el-|la non par che'l|cre- da,|et si sel|ve\- * * * * * *||de, el\-|* la non|
 c2 c2 c4 | B8 | z2 e2 e4 | d2 (d3 ^c/B/ c2) | d8 | z4 e4- | e2 e2 e4 | e2 e2 d4 | d4 z2 e2 | %41
w: par che'l cre-|da,|et si|sel ve\- * * *|de.|In\-|* fi- ni-|ta bel- lez-|za et|
 e2 e2 c4 | B8 | z2 E4 A2 | A4 ^G2 A2 | B4 B4 | A2 A2 A4 | ^G2 G4 G2 | A4 A2 A2 | B6 B2 | %50
w: po- ca fe-|de,|non ve-|de- te voi'l|cor ne-|gli~~oc- chi mie-|i, non ve-|de- te voi'l|cor- ne|
 d4 c2 (B2- | BA A4 ^G2) | A4 z2 A2 | B6 c2- | c2 c4 c2 | d4 e4- | e4 z2 e2 | e2 e2 d4- | %58
w: gli~~oc- chi mie\-||i? Se|non fos\-|* se mia|stel- la,|* i'|pur de- vre\-|
 d2 d2 (c3 B | A2) A2 G2 G2 | E2 e2 d2 d2 | (e3 d c4) | B2 B2 B2 B2 | c4 c4 | z2 c2 c2 c2 | %65
w: * i~~al fon\- *|* te di pie-|ta tro- var mer-|ce\- * *|de, tro- var mer-|ce- de,|i' pur de-|
 d2 G2 A2 E2 |[Q:1/4=118] F2[Q:1/4=116] F2[Q:1/4=114] E2[Q:1/4=111] e2 | %67
w: vre- i~~al fon- te|di pie- tà tro-|
[Q:1/4=109] e2[Q:1/4=107] e2[Q:1/4=104] d4 |[Q:1/4=102] ^c16 |] %69
w: var mer- ce-|de.|
V:2
 z4 A4- | A4 G4- | G2 E2 (A3 B | c4) G4 | z2 G4 c2- | c2 c2 A2 A2 |[M:4/4][K:treble-8] G4 E4 | %7
w: Las\-|* so,|* ch'i ar\- *|* do,|et al\-|* tri non me'l|cre- de;|
 z2 G2 G4- | G2 G2 A2 A2 | A4 c4 | (c3 B/A/ G2) C2 | D2 E2 z2 C2 | E2 E2 F4 | E2 G2 (AGFE | %14
w: si cre\-|* d'o- gn'uom, se|non so-|la * * * co-|le- i che|so- vr'o- gni~~al-|tra, che so\- * * *|
 D2) F2 G2 (C2- | CD E2) z2 A2- | A2 G2 c4 | A2 (A3 G/F/ G2) | (A3 G F2) E2 | z2 C2 (CDEF | %20
w: * vr'o- gni~~al- tra,|* * * et|* chi so-|la, vor\- * * *|re\- * * i,|et chi * * *|
 G2) (E3 F G2) | A2 D2 G2 C2 | z2 C2 C2 (CD | EF G2) C2 c2- | c2 (A4 G2) | A4 z2 A2 | A2 A2 c2 c2 | %27
w: * so\- * *|la, vor- re- i,|et chi so\- *|* * * la, vor\-|* re\- *|i: el-|la non par che'l|
 G4 G4 | z2 E2 c2 c2 | A4 A4 | z2 A2 B2 B2 | E2 E2 G4- | G2 G2 z2 A2 | G2 G2 (G3 F | E2) A2 G2 c2 | %35
w: cre- da,|et si sel|ve- de,|el- la non|par che'l cre\-|* da, et|si sel ve\- *|* de,~et si sel|
 A8 | B8 | z4 c4- | c2 c2 c4 | c2 c2 A4 | B4 z2 c2 | c2 G2 A4 | G4 z4 | C4 C2 E2- | E2 D2 E4 | %45
w: ve-|de.|In\-|* fi- ni-|ta bel- lez-|za et|po- ca fe-|de,|non ve- de\-|* te voi'l|
 G2 G2 G4 | E2 (E3 D/C/ D2) | .E2 E4 B,2 | C2 C2 E4 | G6 G2 | G2 D2 G4 | E2 E2 E2 E2 | F4 E4 | %53
w: cor ne- gli~~oc-|chi mie\- * * *|i, non ve-|de- te voi'l|cor- ne|gli~~oc- chi mie-|i, gli oc- chi|mie- i?|
 z2 G2 G2 G2- | G2 A2 A2 (c2- | cB/A/ B2) c4 | z2 G2 G2 G2 | (c3 B A2) A2 | (DEFG A2) A2 | c6 c2 | %60
w: Se non fos\-|* se mia stel\-|* * * * la,|i' pur de-|vre\- * * i~~al|fon\- * * * * te|di pie-|
 G2 c2 A2 B2 | (G4 A4) | D4 z2 D2 | F2 F2 E4- | E2 E2 A2 A2 | F2 D2 E2 c2 | c6 c2 | (c4 A4) | %68
w: ta tro- var mer-|ce\- *|de, i'|pur de- vre\-|* i~~al fon- te|di pie- tà tro-|var mer-|ce\- *|
 A16 |] %69
w: de.|
V:3
 F,8 | E,6 E,2 | (G,4 F,4) | E,4 z2 E,2 | E,2 D,2 E,2 E,2 | E,8 |[M:4/4] E,4 z2 C,2 | D,6 D,2 | %8
w: Las-|so, ch'i|ar\- *|do, et|al- tri non me'l|cre-|de; si|cre- d'o-|
 E,4 F,4 | F,4 G,4 | A,2 G,2 E,2 E,2 | z2 G,2 G,2 E,2 | (A,6 G,F, | G,2) E,2 z2 A,2 | %14
w: gn'uom, se|non so-|la co- le- i|che so- vr'o-|gni~~al\- * *|* tra, et|
 F,2 (D,3 E, F,2) | (E,3 F, G,2) F,2 | E,2 E,2 z2 A,2 | F,2 F,2 (D,3 E, | F,2) E,2 A,4 | E,8 | %20
w: chi so\- * *|la, * * vor-|re- i, et|chi so- la, *|* vor- re-|i,|
 z2 G,2 G,2 (E,2- | E,F, G,2) E,2 E,2 | (A,3 G, F,2) E,2 | z2 E,2 E,2 A,,2 | (A,,B,,C,D, E,4) | %25
w: et chi so\-|* * * la, vor-|re\- * * i,|so- la, vor-|re\- * * * *|
 A,,4 z4 | F,4 E,2 E,2 | E,2 E,2 D,4 | C,4 z2 E,2 | F,2 F,2 E,4 | D,8 | z4 D,4 | E,2 E,2 E,4- | %33
w: i:|el- la non|par che'l cre-|da, et|si sel ve-|de,|el-|la non par|
 E,2 E,2 D,4 | C,4 z2 E,2 | F,2 F,2 E,4 | G,8 | z4 G,4- | G,2 G,2 G,4 | A,2 A,2 ^F,4 | G,4 z2 G,2 | %41
w: * che'l cre-|da, et|si sel ve-|de.|In\-|* fi- ni-|ta bel- lez-|za et|
 G,2 E,2 E,4- | E,4 D,4 | z4 z2 C,2- | C,2 A,,2 B,,2 C,2 | D,4 E,2 B,,2 | C,2 C,2 A,,4 | %47
w: po- ca fe\-|* de,|non|* ve- de- te|voi'l cor ne-|gli~~oc- chi mie-|
 B,,4 z2 E,2- | E,2 E,2 C,4 | B,,2 E,2 D,2 D,2 | B,,2 B,,2 (E,3 D, | C,4) B,,4 | z2 D,4 ^C,2 | %53
w: i, non|* ve- de-|te voi'l cor- ne|gli~~oc- chi mie\- *|* i?|Se non|
 D,6 E,2 | E,2 (F,3 G, A,2- | A,2 G,F, G,2) G,2 | z2 E,2 E,2 E,2 | (A,3 G,F,E, F,2- | %58
w: fos- se|mia stel\- * *|* * * * la,|i' pur de-|vre\- * * * *|
 F,2) D,2 F,2 E,2 | E,2 F,2 E,4 | z2 E,2 ^F,2 G,2 | (E,F, G,4 ^F,2) | G,4 z2 G,2 | A,2 A,2 G,4- | %64
w: * i~~al fon- te|di pie- ta|tro- var mer-|ce\- * * *|de, i'|pur de- vre\-|
 G,2 G,2 (F,3 E, | D,2) D,2 C,2 C,2 | A,,2 A,2 G,2 G,2 | (A,3 G, F,4) | E,16 |] %69
w: * i~~al fon\- *|* te di pie-|tà tro- var mer-|ce\- * *|de.|
V:4
 D,8 | (A,,3 B,, C,2) C,2 | (E,4 D,4) | C,8 | z2 G,,2 C,2 C,2 | A,,2 A,,2 A,,4 | %6
w: Las-|so, * * ch'i|ar\- *|do,|et al- tri|non me'l cre-|
[M:4/4] E,,4 z2 A,,2 | G,,6 G,,2 | C,4 z2 F,,2 | F,2 D,2 C,2 C,2 | A,,2 C,3 C, A,,2 | %11
w: de; si|cre- d'o-|gn'uom, si|cre- d'o- gn'uom, se|non so- la co-|
 G,,2 E,,2 z2 A,,2 | A,,2 A,,2 D,4 | C,2 C,2 A,,2 A,,2 | (_B,,3 A,, G,,2) F,,2 | %15
w: le- i che|so- vr'o- gni~~al-|tra, che so- vr'o-|gni~~al\- * * tra,|
 z2 C,2 C,2 (A,,2- | A,,B,, C,2) A,,2 A,,2 | (D,3 C, _B,,4) | A,,4 z2 A,,2- | A,,2 A,,2 A,,4 | %20
w: et chi so\-|* * * la, vor-|re\- * *|i, et|* chi so-|
 E,,2 E,,2 (C,3 B,, | A,,2) G,,2 z2 A,,2 | F,,2 (F,,3 G,, A,,2) | G,,2 E,,2 (A,,3 G,, | %24
w: la, vor- re\- *|* i, et|chi so\- * *|la, vor- re\- *|
 F,,4) E,,4 | z2 E,2 F,2 F,2 | D,2 D,2 (A,,3 B,, | C,4) G,,4 | z2 A,,2 A,,2 A,,2 | D,4 A,,4 | %30
w: * i:|el- la non|par che'l cre\- *|* da,|et si sel|ve- de,|
 z2 D,2 G,,2 G,,2 | A,,4 G,,4 | C,4 A,,4 | z2 E,,2 G,,2 G,,2 | (A,,3 B,, C,2) A,,2 | D,2 D,2 A,,4 | %36
w: el- la non|par che'l|cre- da,|et si sel|ve\- * * de,~et|si sel ve-|
 G,,8 | z4 C,4- | C,2 C,2 C,4 | A,,2 A,,2 D,4 | G,,4 z2 C,2 | C,2 C,2 A,,4 | (E,,3 G,, G,,4) | %43
w: de,.|In\-|* fi- ni-|ta bel- lez-|za et|po- ca fe-|de, * *|
 z2 A,,4 A,,2 | F,,4 E,,2 A,,2 | G,,2 G,,2 E,,2 E,,2 | (A,,3 G,, F,,4) | E,,4 E,,4 | A,,4 A,,4 | %49
w: non ve-|de- te voi'l|cor ne- gli~~oc- chi|mie\- * *|i, non|ve- de-|
 E,,2 E,,2 G,,4- | G,,2 G,,2 E,,2 E,,2 | A,,4 E,,4 | z4 A,,4 | G,,2 G,,4 C,2- | C,2 F,,2 (F,3 E, | %55
w: te voi'l cor\-|* ne gli~~oc- chi|mie- i?|Se|non fos- se|* mia stel\- *|
 D,4) C,4- | C,4 z2 C,2 | A,,2 A,,2 (D,3 C, | _B,,2) B,,2 C,4- | C,2 F,,2 C,4- | %60
w: * la,|* i'|pur de- vre\- *|* i~~al fon\-|* te di|
 C,2 A,,2 D,2 G,,2 | C,2 C,2 A,,4 | G,,8 | z2 F,,2 C,2 C,2 | C,4 F,,4 | _B,,2 B,,2 A,,2 A,,2 | %66
w: * pie- ta tro-|var mer- ce-|de,|i' pur de-|vre- i~~al|fon- te di pie-|
 F,,4 C,4 | A,,2 A,,2 D,4 | A,,16 |] %69
w: tà tro|var mer- ce-|de.|

